X:440
L:1/8
Q:3/8=110
M:6/8
K:G
"^A" d | g2 d B2 g | e2 c A2 G | FGA DEF | G2 B d2 g | g2 d B2 g | e2 c A2 G | FGA DEF | G3 G2 || 
"^B" B | c2 a a2 c | B2 g g2 B | ABc def | g2 a b2 d | c2 a a2 c | B2 g g2 b | agf edc | dAB cde || 
"^C" dBg ecg | dBg ecg | dcB BAG | FAA A2 d | dBg ecg | dBg ecg | dcB AFG | G3 G2 |]

